X:1
T:Colorado, 88.86
T:Colorado, 88.86
T:Lindsay Bartholomew Longacre, 1911
T:Public Domain Courtesy of the Cyber Hymnal™
C:Lindsay Bartholomew Longacre, 1911
Z:Public Domain
Z:Courtesy of the Cyber Hymnal™
%%score ( 1 2 ) ( 3 4 )
L:1/8
M:3/4
K:Eb
V:1 treble 
V:2 treble 
V:3 bass 
V:4 bass 
V:1
 B2 | (B2 G2) c2 | (B2 G2) E2 | E4 F2 | G4 G2 | (G2 E2) A2 | (G2 c2) e2 | e4 d2 | c4 c2 | %9
 (c2 A2) F2 | B4 B2 | (B2 G2) E2 | A4 A2 | (G2 F2) E2 | [B,DF]4 [A,B,E]2 | [G,B,E]6- | [G,B,E]4 |] %17
V:2
 x2 | x6 | x6 | C6 | [B,E]6 | x6 | x6 | [G=B]6 | G6 | C6 | D6 | E6 | C6 | B,6 | x6 | x6 | x4 |] %17
V:3
 B,2 | (B,2 G,2) C2 | (B,2 G,2) E,2 | [A,,E,]6 | [E,,E,]6 | (G,2 E,2) A,2 | (G,2 C2) E2 | [G,D]6 | %8
 [A,C]6 | E,4 F,2- | [A,,F,]6 | [G,,E,]6 | [F,,E,]6 | (E,2 A,2) G,2 | [B,,A,]4 B,,2 | [E,,B,,]6- | %16
 [E,,B,,]4 |] %17
V:4
 x2 | x6 | x6 | x6 | x6 | x6 | x6 | x6 | x6 | A,,6- | x6 | x6 | x6 | B,,6 | x6 | x6 | x4 |] %17

